assets/icons/24px/outline/dashboard-one-is-filled-24px.svg

<svg fill="none" height="24" viewBox="0 0 24 24" width="24" xmlns="http://www.w3.org/2000/svg"><g stroke="#fff" stroke-linecap="round" stroke-linejoin="round" stroke-width="2"><path d="m3 6.5c0-1.40446 0-2.10669.33706-2.61114.14592-.21838.33342-.40588.5518-.5518.50445-.33706 1.20668-.33706 2.61114-.33706 1.40446 0 2.10669 0 2.61114.33706.21838.14592.40588.33342.5518.5518.33706.50445.33706 1.20668.33706 2.61114 0 1.40446 0 2.10669-.33706 2.61114-.14592.21838-.33342.40588-.5518.5518-.50445.33706-1.20668.33706-2.61114.33706-1.40446 0-2.10669 0-2.61114-.33706-.21838-.14592-.40588-.33342-.5518-.5518-.33706-.50445-.33706-1.20668-.33706-2.61114z" fill="#fff"/><rect height="7" rx="2" width="7" x="3" y="14"/><rect height="7" rx="2" width="7" x="14" y="3"/><rect height="7" rx="2" width="7" x="14" y="14"/></g></svg>

<svg width="24" height="24" viewBox="0 0 24 24" fill="none" xmlns="http://www.w3.org/2000/svg">
<path d="M3 6.5C3 5.09554 3 4.39331 3.33706 3.88886C3.48298 3.67048 3.67048 3.48298 3.88886 3.33706C4.39331 3 5.09554 3 6.5 3V3C7.90446 3 8.60669 3 9.11114 3.33706C9.32952 3.48298 9.51702 3.67048 9.66294 3.88886C10 4.39331 10 5.09554 10 6.5V6.5C10 7.90446 10 8.60669 9.66294 9.11114C9.51702 9.32952 9.32952 9.51702 9.11114 9.66294C8.60669 10 7.90446 10 6.5 10V10C5.09554 10 4.39331 10 3.88886 9.66294C3.67048 9.51702 3.48298 9.32952 3.33706 9.11114C3 8.60669 3 7.90446 3 6.5V6.5Z" fill="white" stroke="white" stroke-width="2" stroke-linecap="round" stroke-linejoin="round"/>
<rect x="3" y="14" width="7" height="7" rx="2" stroke="white" stroke-width="2" stroke-linecap="round" stroke-linejoin="round"/>
<rect x="14" y="3" width="7" height="7" rx="2" stroke="white" stroke-width="2" stroke-linecap="round" stroke-linejoin="round"/>
<rect x="14" y="14" width="7" height="7" rx="2" stroke="white" stroke-width="2" stroke-linecap="round" stroke-linejoin="round"/>
</svg>
